modules/hawcons-filled/icons/icon-88-inbox.svg

<?xml version="1.0" encoding="UTF-8" standalone="no"?>
<svg width="32px" height="32px" viewBox="0 0 32 32" version="1.1" xmlns="http://www.w3.org/2000/svg" xmlns:xlink="http://www.w3.org/1999/xlink" xmlns:sketch="http://www.bohemiancoding.com/sketch/ns">
    <!-- Generator: Sketch 3.0.3 (7891) - http://www.bohemiancoding.com/sketch -->
    <title>icon 88 inbox</title>
    <desc>Created with Sketch.</desc>
    <defs></defs>
    <g id="Page-1" stroke="none" stroke-width="1" fill="none" fill-rule="evenodd" sketch:type="MSPage">
        <g id="icon-88-inbox" sketch:type="MSArtboardGroup" fill="#929292">
            <path d="M12,16 L5.22497559,16 L9.59997559,9 L23.4000244,9 L27.7750244,16 L21,16 L21,17.9940809 C21,19.1134452 20.1057373,20 19.0026083,20 L13.9973917,20 C12.8958578,20 12,19.1019194 12,17.9940809 L12,16 L12,16 Z M4,16 L9,8 L24,8 L29,16 L29,17.5 L29,25 L4,25 L4,16 L4,16 Z" id="inbox" sketch:type="MSShapeGroup"></path>
        </g>
    </g>
</svg>

<svg width="32" height="32" viewBox="0 0 32 32" xmlns="http://www.w3.org/2000/svg"><path d="M12 16H5.225L9.6 9h13.8l4.375 7H21v1.994c0 1.12-.894 2.006-1.997 2.006h-5.006A2.003 2.003 0 0 1 12 17.994V16zm-8 0l5-8h15l5 8v9H4v-9z" fill="#929292" fill-rule="evenodd"/></svg>
